src/images/favicon.svg

<svg width="46" height="28" viewBox="0 0 46 28" fill="none" xmlns="http://www.w3.org/2000/svg">
<rect width="46" height="28" fill="#E5E5E5"/>
<g id="Air Black" clip-path="url(#clip0_0_1)">
<rect width="320" height="8415" transform="translate(-20 -20)" fill="#F2F6FA"/>
<g id="Hero Screen">
<path id="BG" d="M-20 -20L300 -20V843C300 859.569 286.569 873 270 873H10C-6.56854 873 -20 859.569 -20 843V-20Z" fill="#2C2C2C"/>
<g id="Logo">
<g id="Air">
<path d="M8.128 18.964L14.428 5.356L20.728 18.964H8.128ZM22.24 22.204L24.292 26.632H27.856L16.12 1.432H12.736L1 26.632H4.564L6.616 22.204H22.24Z" fill="white"/>
<path d="M28.2025 3.448C28.2025 4.168 28.4185 4.744 28.8865 5.212C29.3545 5.68 29.9305 5.896 30.6505 5.896C31.3345 5.896 31.9105 5.68 32.3785 5.212C32.8465 4.744 33.0985 4.168 33.0985 3.448C33.0985 2.764 32.8465 2.188 32.3785 1.72C31.9105 1.252 31.3345 1 30.6505 1C29.9305 1 29.3545 1.252 28.8865 1.72C28.4185 2.188 28.2025 2.764 28.2025 3.448ZM32.1985 8.632H29.1025V26.632H32.1985V8.632Z" fill="white"/>
<path d="M38.6183 11.332V8.632H35.6303V26.632H38.7263V18.244C38.7263 17.236 38.7983 16.336 38.9783 15.472C39.1223 14.644 39.4103 13.924 39.8423 13.312C40.2743 12.736 40.8143 12.268 41.4983 11.944C42.1463 11.62 43.0103 11.44 44.0183 11.44C44.3423 11.44 44.6303 11.476 44.9183 11.512C45.2063 11.548 45.4943 11.584 45.8183 11.656V8.38C45.5303 8.344 45.2423 8.308 44.9543 8.272C44.6663 8.236 44.3423 8.2 44.0543 8.2C42.7583 8.2 41.6783 8.488 40.7783 9.028C39.8783 9.568 39.1583 10.324 38.6183 11.332Z" fill="white"/>
</g>
</g>
</g>
</g>
<defs>
<clipPath id="clip0_0_1">
<rect width="320" height="8415" fill="white" transform="translate(-20 -20)"/>
</clipPath>
</defs>
</svg>

<svg width="46" height="46" viewBox="0 0 46 28" fill="none" xmlns="http://www.w3.org/2000/svg">
  <path fill="#E5E5E5" d="M0 0h46v28H0z"/>
  <g clip-path="url(#a)">
    <path fill="#F2F6FA" d="M-20-20h320v8415H-20z"/>
    <path d="M-20-20h320v863c0 16.569-13.431 30-30 30H10c-16.569 0-30-13.431-30-30V-20Z" fill="#2C2C2C"/>
    <path d="m8.128 18.964 6.3-13.608 6.3 13.608h-12.6Zm14.112 3.24 2.052 4.428h3.564L16.12 1.432h-3.384L1 26.632h3.564l2.052-4.428H22.24Zm5.963-18.756c0 .72.216 1.296.684 1.764.468.468 1.043.684 1.764.684.683 0 1.26-.216 1.728-.684.468-.468.72-1.044.72-1.764 0-.684-.252-1.26-.72-1.728A2.364 2.364 0 0 0 30.65 1c-.72 0-1.296.252-1.764.72-.468.468-.684 1.044-.684 1.728Zm3.996 5.184h-3.096v18h3.096v-18Zm6.419 2.7v-2.7H35.63v18h3.096v-8.388c0-1.008.072-1.908.252-2.772.144-.828.432-1.548.864-2.16a4.4 4.4 0 0 1 1.656-1.368c.648-.324 1.512-.504 2.52-.504.324 0 .612.036.9.072.288.036.576.072.9.144V8.38l-.864-.108a7.579 7.579 0 0 0-.9-.072c-1.296 0-2.376.288-3.276.828-.9.54-1.62 1.296-2.16 2.304Z" fill="#fff"/>
  </g>
  <defs>
    <clipPath id="a">
      <path fill="#fff" d="M-20-20h320v8415H-20z"/>
    </clipPath>
  </defs>
</svg>
